src/assets/icons/weeks,fancy,36.svg

<svg width="48" height="48" viewBox="0 0 48 48" fill="none" xmlns="http://www.w3.org/2000/svg">
<rect opacity="0.2" x="4" y="6" width="40" height="40" rx="4" fill="black"/>
<path d="M14.7069 41.2784C19.2807 41.2784 22.552 38.7628 22.5421 35.2827C22.552 32.7472 20.9412 30.9375 17.9483 30.5597V30.4006C20.2253 29.9929 21.7963 28.3821 21.7864 26.0952C21.7963 22.8835 18.9824 20.358 14.7665 20.358C10.5904 20.358 7.44833 22.804 7.38867 26.3239H11.5151C11.5648 24.7727 12.9867 23.7685 14.7466 23.7685C16.4867 23.7685 17.65 24.8224 17.6401 26.3537C17.65 27.9545 16.2878 29.0384 14.329 29.0384H12.4299V32.2003H14.329C16.6358 32.2003 18.0776 33.3537 18.0676 34.9943C18.0776 36.6151 16.6855 37.7287 14.7168 37.7287C12.8176 37.7287 11.3958 36.7344 11.3162 35.2429H6.981C7.0506 38.8026 10.2324 41.2784 14.7069 41.2784ZM33.4522 41.2784C37.9863 41.2983 41.0787 38.3253 41.0687 34.179C41.0787 30.3608 38.4139 27.6065 34.8045 27.6065C32.5673 27.6065 30.5886 28.6804 29.6738 30.4801H29.5346C29.5545 26.5128 30.9466 24.0469 33.6014 24.0469C35.1625 24.0469 36.286 24.902 36.6142 26.3239H40.8599C40.4522 22.973 37.6681 20.358 33.6014 20.358C28.5701 20.358 25.3386 24.4347 25.3187 31.2756C25.3088 38.733 29.2662 41.2585 33.4522 41.2784ZM33.4324 37.8977C31.4437 37.8977 29.9721 36.2969 29.9721 34.3082C29.9821 32.3295 31.4835 30.7188 33.4622 30.7188C35.4508 30.7188 36.9025 32.2798 36.8926 34.2983C36.9025 36.3366 35.421 37.8977 33.4324 37.8977Z" fill="black"/>
<g opacity="0.4">
<path d="M10 4C10 2.89543 10.8954 2 12 2C13.1046 2 14 2.89543 14 4V8C14 9.10457 13.1046 10 12 10C10.8954 10 10 9.10457 10 8V4Z" fill="black"/>
<path d="M34 4C34 2.89543 34.8954 2 36 2C37.1046 2 38 2.89543 38 4V8C38 9.10457 37.1046 10 36 10C34.8954 10 34 9.10457 34 8V4Z" fill="black"/>
</g>
<path fill-rule="evenodd" clip-rule="evenodd" d="M10 6.00869C7.52043 6.04456 6.11466 6.22849 5.17157 7.17157C4 8.34315 4 10.2288 4 14V16H44V14C44 10.2288 44 8.34315 42.8284 7.17157C41.8853 6.22849 40.4796 6.04456 38 6.00869V8C38 9.10457 37.1046 10 36 10C34.8954 10 34 9.10457 34 8V6H14V8C14 9.10457 13.1046 10 12 10C10.8954 10 10 9.10457 10 8V6.00869Z" fill="black"/>
</svg>

<svg xmlns="http://www.w3.org/2000/svg" width="48" height="48" fill="none" viewBox="0 0 48 48">
  <rect width="40" height="40" x="4" y="6" fill="#000" opacity=".2" rx="4"/>
  <path fill="#000" d="M14.707 41.278c4.574 0 7.845-2.515 7.835-5.995.01-2.536-1.6-4.346-4.594-4.723v-.16c2.277-.407 3.848-2.018 3.838-4.305.01-3.211-2.804-5.737-7.02-5.737-4.176 0-7.318 2.446-7.377 5.966h4.126c.05-1.551 1.472-2.556 3.232-2.556 1.74 0 2.903 1.054 2.893 2.586.01 1.6-1.352 2.684-3.311 2.684h-1.9V32.2h1.9c2.307 0 3.749 1.154 3.739 2.794.01 1.621-1.383 2.735-3.351 2.735-1.9 0-3.321-.995-3.4-2.486H6.98c.07 3.56 3.251 6.035 7.726 6.035zm18.745 0c4.534.02 7.627-2.953 7.617-7.099.01-3.818-2.655-6.573-6.265-6.573-2.237 0-4.215 1.074-5.13 2.874h-.14c.02-3.967 1.413-6.433 4.067-6.433 1.562 0 2.685.855 3.013 2.277h4.246c-.408-3.351-3.192-5.966-7.259-5.966-5.03 0-8.262 4.077-8.282 10.918-.01 7.457 3.947 9.982 8.133 10.002zm-.02-3.38c-1.988 0-3.46-1.601-3.46-3.59.01-1.978 1.511-3.59 3.49-3.59 1.989 0 3.44 1.562 3.43 3.58.01 2.039-1.471 3.6-3.46 3.6z"/>
  <g opacity=".4">
    <path fill="#000" d="M10 4a2 2 0 114 0v4a2 2 0 11-4 0V4zM34 4a2 2 0 114 0v4a2 2 0 11-4 0V4z"/>
  </g>
  <path fill="#000" fill-rule="evenodd" d="M10 6.009c-2.48.036-3.885.22-4.828 1.163C4 8.343 4 10.229 4 14v2h40v-2c0-3.771 0-5.657-1.172-6.828-.943-.944-2.348-1.127-4.828-1.163V8a2 2 0 11-4 0V6H14v2a2 2 0 11-4 0V6.009z" clip-rule="evenodd"/>
</svg>
